assets/notion.svg

<svg width="60" height="60" viewBox="0 0 60 60" fill="none" xmlns="http://www.w3.org/2000/svg">
<path fill-rule="evenodd" clip-rule="evenodd" d="M9.43199 56.4356L2.55327 47.8663C0.89826 45.8045 0 43.2692 0 40.6597V9.62997C0 5.72128 3.12717 2.47794 7.16143 2.2025L39.0643 0.0243656C41.382 -0.133875 43.6856 0.482181 45.5895 1.76941L56.7985 9.34783C58.8049 10.7044 60 12.922 60 15.2885V50.5663C60 54.3915 56.9251 57.5586 52.9752 57.8017L17.5667 59.9813C14.4147 60.1754 11.368 58.8474 9.43199 56.4356Z" fill="white"/>
<path d="M20.4963 25.1574V24.7512C20.4963 23.7214 21.3211 22.8673 22.384 22.7964L30.1267 22.2794L40.8342 38.047V24.2083L38.0781 23.8409V23.6479C38.0781 22.6061 38.9218 21.7464 39.9983 21.6912L47.0433 21.3303V22.3442C47.0433 22.8201 46.6894 23.2272 46.2043 23.3092L44.509 23.596V46.0074L42.3813 46.7391C40.6038 47.3504 38.6249 46.696 37.6073 45.1605L27.2122 29.4744V44.4459L30.4118 45.0583L30.3672 45.355C30.2276 46.2847 29.425 46.9877 28.4541 47.0309L20.4963 47.3851C20.3911 46.3855 21.1403 45.4911 22.1739 45.3825L23.2207 45.2726V25.3105L20.4963 25.1574Z" fill="black"/>
<path fill-rule="evenodd" clip-rule="evenodd" d="M39.3499 3.93356L7.44706 6.1117C5.5361 6.24217 4.05481 7.77849 4.05481 9.62998V40.6598C4.05481 42.3994 4.65365 44.0896 5.75699 45.4641L12.6357 54.0334C13.7479 55.4189 15.4981 56.1818 17.3088 56.0703L52.7174 53.8907C54.5322 53.779 55.945 52.3239 55.945 50.5663V15.2885C55.945 14.2012 55.3959 13.1823 54.474 12.559L43.265 4.98059C42.1227 4.20825 40.7405 3.83862 39.3499 3.93356ZM9.02906 10.114C8.58535 9.78548 8.79651 9.10109 9.35393 9.06111L39.5645 6.89422C40.5271 6.82518 41.4835 7.09024 42.262 7.64176L48.3235 11.9363C48.5536 12.0993 48.4457 12.4513 48.1608 12.4668L16.1679 14.2067C15.1997 14.2594 14.244 13.9749 13.4741 13.405L9.02906 10.114ZM14.6673 19.6614C14.6673 18.6221 15.5069 17.7635 16.5807 17.7051L50.4062 15.8629C51.4527 15.8059 52.3336 16.6107 52.3336 17.6236V48.1705C52.3336 49.208 51.4969 50.0656 50.4253 50.1266L16.8139 52.0391C15.6493 52.1053 14.6673 51.2104 14.6673 50.083V19.6614Z" fill="black"/>
</svg>

<svg width="60" height="60" fill="none" xmlns="http://www.w3.org/2000/svg"><path fill-rule="evenodd" clip-rule="evenodd" d="m9.432 56.436-6.879-8.57A11.506 11.506 0 0 1 0 40.66V9.63c0-3.909 3.127-7.152 7.161-7.428L39.064.025A10.398 10.398 0 0 1 45.59 1.77l11.208 7.579C58.805 10.704 60 12.922 60 15.288v35.278c0 3.825-3.075 6.993-7.025 7.236l-35.408 2.18c-3.152.193-6.199-1.135-8.135-3.546Z" fill="#fff"/><path d="M20.496 25.157v-.406c0-1.03.825-1.884 1.888-1.955l7.743-.517 10.707 15.768V24.208l-2.756-.367v-.193c0-1.042.844-1.902 1.92-1.957l7.045-.36v1.013a.99.99 0 0 1-.839.965l-1.695.287v22.411l-2.128.732c-1.777.611-3.756-.043-4.774-1.578L27.212 29.474v14.972l3.2.612-.045.297c-.14.93-.942 1.633-1.913 1.676l-7.958.354c-.105-1 .644-1.894 1.678-2.002l1.047-.11V25.31l-2.725-.153Z" fill="#000"/><path fill-rule="evenodd" clip-rule="evenodd" d="M39.35 3.934 7.447 6.112c-1.91.13-3.392 1.666-3.392 3.518v31.03c0 1.74.599 3.43 1.702 4.804l6.879 8.57c1.112 1.385 2.862 2.148 4.673 2.036l35.408-2.18c1.815-.111 3.228-1.566 3.228-3.324V15.288a3.3 3.3 0 0 0-1.471-2.729L43.265 4.981a6.239 6.239 0 0 0-3.915-1.047Zm-30.32 6.18c-.445-.329-.233-1.013.324-1.053l30.21-2.167a4.157 4.157 0 0 1 2.698.748l6.062 4.294c.23.163.122.515-.163.53l-31.993 1.74a4.153 4.153 0 0 1-2.694-.801L9.03 10.114Zm5.637 9.547c0-1.039.84-1.898 1.914-1.956l33.825-1.842c1.047-.057 1.928.748 1.928 1.76V48.17c0 1.038-.837 1.896-1.909 1.957l-33.611 1.912c-1.165.066-2.147-.829-2.147-1.956V19.661Z" fill="#000"/></svg>
